resources/automancy/models/items/files/coal.svg

<?xml version="1.0" encoding="UTF-8" standalone="no"?>
<!-- Created with Inkscape (http://www.inkscape.org/) -->

<svg
        width="160cm"
        height="160cm"
        viewBox="0 0 160 160"
        version="1.1"
        _id="SVGRoot"
        id="svg26"
        sodipodi:docname="coal.svg"
        inkscape:version="1.2.2 (b0a8486541, 2022-12-01)"
        xmlns:inkscape="http://www.inkscape.org/namespaces/inkscape"
        xmlns:sodipodi="http://sodipodi.sourceforge.net/DTD/sodipodi-0.dtd"
        xmlns="http://www.w3.org/2000/svg"
>
    <sodipodi:namedview
            id="namedview22"
            pagecolor="#505050"
            bordercolor="#eeeeee"
            borderopacity="1"
            inkscape:showpageshadow="0"
            inkscape:pageopacity="0"
            inkscape:pagecheckerboard="0"
            inkscape:deskcolor="#505050"
            inkscape:document-units="cm"
            showgrid="false"
            inkscape:zoom="0.11313708"
            inkscape:cx="1926.866"
            inkscape:cy="2558.8427"
            inkscape:window-width="1870"
            inkscape:window-height="1051"
            inkscape:window-x="1920"
            inkscape:window-y="0"
            inkscape:window-maximized="1"
            inkscape:current-layer="svg26"/>
    <defs
            _id="defs402"
            id="defs8"/>
    <path
            id="path1249-7-7"
            style="fill:#696c87;fill-opacity:1;stroke:none;stroke-width:0.0602843px;stroke-linecap:butt;stroke-linejoin:miter;stroke-opacity:1"
            inkscape:label="d"
            d="M 38.983042,0 0,67.645522 32.128478,146.93447 122.40618,160 160,78.25882 106.33387,68.169211 105.07104,19.878528 Z"
            inkscape:transform-center-x="-17.976564"
            inkscape:transform-center-y="-6.9719825"
            sodipodi:nodetypes="cccccccc"/>
    <path
            style="fill:#242435;fill-opacity:1;stroke:none;stroke-width:0.0456048px;stroke-linecap:butt;stroke-linejoin:miter;stroke-opacity:1"
            d="M 89.269212,82.725311 136.70213,90.750161 110.36012,142.79698 71.519789,98.834246 Z"
            id="path1249-7"
            inkscape:label="c"
            sodipodi:nodetypes="ccccc"/>
    <path
            style="display:inline;fill:#191e2f;fill-opacity:1;stroke:none;stroke-width:0.0456048px;stroke-linecap:butt;stroke-linejoin:miter;stroke-opacity:1"
            d="M 20.242759,69.227543 46.758018,131.54665 110.36012,142.79698 62.023384,87.658332 Z"
            id="path1249"
            inkscape:label="b"
            sodipodi:nodetypes="ccccc"/>
    <path
            id="rect1458"
            style="display:inline;fill:#272741;fill-opacity:1;stroke-width:20.6836;stroke-linejoin:bevel;stop-color:#000000"
            d="M 87.722083,32.521028 89.269212,82.725311 71.519789,98.834246 62.023384,87.658332 20.242759,69.227543 47.427507,20.936861 Z"
            inkscape:label="a"
            sodipodi:nodetypes="ccccccc"/>
</svg>

<svg width="160cm" height="160cm" viewBox="0 0 160 160" xmlns="http://www.w3.org/2000/svg">
    <path d="M38.983 0 0 67.646l32.128 79.288L122.406 160 160 78.259l-53.666-10.09-1.263-48.29Z" fill="#696c87"/>
    <path d="m89.27 82.725 47.432 8.025-26.342 52.047-38.84-43.963Z" fill="#242435"/>
    <path d="m20.243 69.228 26.515 62.319 63.602 11.25-48.337-55.139Z" fill="#191e2f"/>
    <path d="m87.722 32.521 1.548 50.204-17.583 15.957-9.664-11.024-41.78-18.43 27.185-48.291Z" fill="#272741"/>
</svg>
